Simply black circles/scalable/actions/tap-create.svg

<svg xmlns="http://www.w3.org/2000/svg" width="24" height="24">
  <path fill="#333" fill-opacity=".9953271" d="M12 2.0019531A9.9993877 9.9993877 0 0 0 2 12a9.9993877 9.9993877 0 0 0 10 10 9.9993877 9.9993877 0 0 0 9.998047-10A9.9993877 9.9993877 0 0 0 12 2.0019531zm-2 7.0683594h4v1.9999995h3.5l-5.5 5.5-5.5-5.5H10V9.0703125z"/>
</svg>

<?xml version="1.0" encoding="UTF-8" standalone="no"?>
<svg
   xmlns:dc="http://purl.org/dc/elements/1.1/"
   xmlns:cc="http://creativecommons.org/ns#"
   xmlns:rdf="http://www.w3.org/1999/02/22-rdf-syntax-ns#"
   xmlns:svg="http://www.w3.org/2000/svg"
   xmlns="http://www.w3.org/2000/svg"
   xmlns:sodipodi="http://sodipodi.sourceforge.net/DTD/sodipodi-0.dtd"
   xmlns:inkscape="http://www.inkscape.org/namespaces/inkscape"
   viewBox="0 0 24 24"
   version="1.1"
   id="svg4"
   sodipodi:docname="tap-create.svg"
   inkscape:version="0.92.3 (2405546, 2018-03-11)"
   width="24"
   height="24"
   style="fill:#000000">
  <metadata
     id="metadata10">
    <rdf:RDF>
      <cc:Work
         rdf:about="">
        <dc:format>image/svg+xml</dc:format>
        <dc:type
           rdf:resource="http://purl.org/dc/dcmitype/StillImage" />
        <dc:title></dc:title>
      </cc:Work>
    </rdf:RDF>
  </metadata>
  <defs
     id="defs8" />
  <sodipodi:namedview
     pagecolor="#ffffff"
     bordercolor="#666666"
     borderopacity="1"
     objecttolerance="10"
     gridtolerance="10"
     guidetolerance="10"
     inkscape:pageopacity="0"
     inkscape:pageshadow="2"
     inkscape:window-width="1366"
     inkscape:window-height="717"
     id="namedview6"
     showgrid="false"
     inkscape:zoom="15.850977"
     inkscape:cx="2.5873605"
     inkscape:cy="11.821561"
     inkscape:window-x="0"
     inkscape:window-y="25"
     inkscape:window-maximized="1"
     inkscape:current-layer="svg4"
     showguides="true"
     inkscape:guide-bbox="true" />
  <path
     style="opacity:1;fill:#333333;fill-opacity:0.9953271;stroke:#4d4d4d;stroke-width:0;stroke-miterlimit:4;stroke-dasharray:none;stroke-opacity:1"
     d="M 12 2.0019531 A 9.9993877 9.9993877 0 0 0 2 12 A 9.9993877 9.9993877 0 0 0 12 22 A 9.9993877 9.9993877 0 0 0 21.998047 12 A 9.9993877 9.9993877 0 0 0 12 2.0019531 z M 10 9.0703125 L 14 9.0703125 L 14 11.070312 L 17.5 11.070312 L 12 16.570312 L 6.5 11.070312 L 10 11.070312 L 10 9.0703125 z "
     id="path814" />
</svg>
